usr/share/icons/biglinux-icons-material/24/actions/gnumeric-cells-merge.svg

<svg xmlns="http://www.w3.org/2000/svg" viewBox="0 0 24 24">
  <defs id="defs3051">
    <style type="text/css" id="current-color-scheme">
      .ColorScheme-Text {
        color:#dedede;
      }
      </style>
  </defs>
 <path style="fill:currentColor;fill-opacity:1;stroke:none" 
     d="M 4 4 L 4 5 L 4 20 L 5 20 L 19 20 L 20 20 L 20 5 L 20 4 L 4 4 z M 5 5 L 9 5 L 9 6 L 9 7 L 8 7 L 5 7 L 5 5 z M 10 5 L 14 5 L 14 6 L 14 7 L 10 7 L 10 6 L 10 5 z M 15 5 L 19 5 L 19 7 L 16 7 L 15 7 L 15 6 L 15 5 z M 5 8 L 8 8 L 9 8 L 9 10 L 5 10 L 5 8 z M 10 8 L 14 8 L 15 8 L 17 8 L 19 8 L 19 16.099609 L 17 16.099609 L 15 16.099609 L 14 16.099609 L 10 16.099609 L 10 14 L 10 13 L 10 8 z M 5 11 L 9 11 L 9 13 L 5 13 L 5 11 z M 5 14 L 9 14 L 9 16.099609 L 8 16.099609 L 5 16.099609 L 5 14 z M 5 17.099609 L 8 17.099609 L 9 17.099609 L 9 18.099609 L 9 19 L 5 19 L 5 17.099609 z M 10 17.099609 L 14 17.099609 L 14 18.099609 L 14 19 L 10 19 L 10 18.099609 L 10 17.099609 z M 15 17.099609 L 16 17.099609 L 19 17.099609 L 19 19 L 15 19 L 15 18.099609 L 15 17.099609 z "
     class="ColorScheme-Text"
     />
</svg>

<svg xmlns="http://www.w3.org/2000/svg" viewBox="0 0 24 24"><path d="M4 4v16h16V4H4zm1 1h4v2H5V5zm5 0h4v2h-4V5zm5 0h4v2h-4V5zM5 8h4v2H5V8zm5 0h9v8.1h-9V8zm-5 3h4v2H5v-2zm0 3h4v2.1H5V14zm0 3.1h4V19H5v-1.9zm5 0h4V19h-4v-1.9zm5 0h4V19h-4v-1.9z" style="fill:currentColor;fill-opacity:1;stroke:none;color:#dedede"/></svg>
